static/assets/img/icons/theme/navigation/arrow-from-bottom.svg

<svg height="24" viewBox="0 0 24 24" width="24" xmlns="http://www.w3.org/2000/svg"><g fill="none" fill-rule="evenodd"><path d="m0 0h24v24h-24z" opacity="0"/><g fill="#000"><rect height="14" opacity=".3" rx="1" width="2" x="11" y="3"/><path d="m6.70710678 10.7071068c-.39052429.3905243-1.02368927.3905243-1.41421356 0s-.39052429-1.02368929 0-1.41421358l5.99999998-6c.378579-.37857894.9881654-.39182456 1.3828314-.03004736l6 5.5c.407119.37319241.4346219 1.00575978.0614295 1.41287874-.3731924.407119-1.0057597.4346219-1.4128787.0614295l-5.2941997-4.85301628z" fill-rule="nonzero"/><rect height="2" opacity=".3" rx="1" width="18" x="3" y="19"/></g></g></svg>

<svg width="24px" height="24px" viewBox="0 0 24 24" version="1.1" xmlns="http://www.w3.org/2000/svg" xmlns:xlink="http://www.w3.org/1999/xlink">
    <title>Icon For Arrow-from-bottom</title>
    <g stroke="none" stroke-width="1" fill="none" fill-rule="evenodd">
        <polygon points="0 0 24 0 24 24 0 24" opacity="0"></polygon>
        <rect fill="#000000" opacity="0.3" x="11" y="3" width="2" height="14" rx="1"></rect>
        <path d="M6.70710678,10.7071068 C6.31658249,11.0976311 5.68341751,11.0976311 5.29289322,10.7071068 C4.90236893,10.3165825 4.90236893,9.68341751 5.29289322,9.29289322 L11.2928932,3.29289322 C11.6714722,2.91431428 12.2810586,2.90106866 12.6757246,3.26284586 L18.6757246,8.76284586 C19.0828436,9.13603827 19.1103465,9.76860564 18.7371541,10.1757246 C18.3639617,10.5828436 17.7313944,10.6103465 17.3242754,10.2371541 L12.0300757,5.38413782 L6.70710678,10.7071068 Z" fill="#000000" fill-rule="nonzero"></path>
        <rect fill="#000000" opacity="0.3" x="3" y="19" width="18" height="2" rx="1"></rect>
    </g>
</svg>
